X:65
T:When the King Enjoys His Own Again
Z:Jack Campin, http://www.campin.me.uk/
F:Jack Campin's Nine-Note Tunebook
% last edit 03-02-2013
C:Martin Parker
M:C
L:1/8
Q:1/4=120
K:F  
 C2 |D2 D2  F2  F2 |(GA)(Bc) A2 \
(GA)|B2 D2  E2  F2 | G3   F  F2
 C2 |C2 C2  F2  F2 |(GA)(Bc) A2 \
(GA)|B2 D2  E2  F2 | G3   F  F2
 G2 |G2 EF  G2  A2 |(GF) EF  G2 \
 A2 |B2 D2 (EG)(FE)| D3   C  C2
 C2 |c2 cB  A2 (GF)|(GA) Bc  A2 \
 GA |B2 D2  E2  F2 | G3   F  F4|]

